X: 521
%
U:~=!turn!
T: North Bridge of Edinburgh
C:
O:Scotland
B:Keith Norman MacDonald : "The Skye collection of the best reels & strathspeys extant" : 1887
Z:Ralph Palmer
R:Strathspey
M:C
L:1/8
K:B Aeolian
B | F>BB>F B/B/B {/c}d2 | {/d}c>BAc e/d/c/B/ Ac | F>BB>F B/B/B {/c}d2 | {/d}c>Bc>^A B2 B, ::
c | d2 d>f d/d/d f>d | {/d}c>BAe c>Ae>c | {/^c}d2 d>f d/d/d f>d | {/d}c>Bc^A B2 Bc |
d2 d>f d/d/d fd | {/d}c>BAe cAec | dfdf cAec | d>Bc>^A B2 B, :|


